!!!COM: Battle, Ramon Carnicer Y
!!!CDT: 1780-1855
!!!OTL: National Anthem, Chile
!!!ENC: Davis, Matthew J.
!!Vocal Line Only
**kern
*clefG2
*k[]
*X:
*M4/4
=1-
1r
=2
1r
=3
1r
=4
1r
=5
1r
=6
1r
=7
1r
=8
1r
=9
1r
=10
1r
=11
2r
4r
8.g
16cc
==12
8.cc
16b
8.b
16a
8.a
16g
8.g
16f#
=13
4.g
8fn
4e
8.d
16e
=14
8.f
16g
6a
6g
6f
8.e
16f
6g
6f
6e
=15
4d
4r
4r
8.g
16cc
=16
8.cc
16b
8.b
16a
8.a
16g
8.g
16f#
=17
4.g
8fn
4e
8.g
16cc
=18
8.b
16a#
8.b
16cc
8.an
16g#
8.an
16b
=19
2.gn
4r
8.gn
16gn
=20
4g
8.g
16g
8a-
8g
8f
8g
=21
4.a-
8g
4f
8.a-
16a-
=22
4a-
8.a-
16a-
8b-
8a-
8g
8a-
=23
2b-
4r
8.g
16g
=24
4cc
8.cc
16cc
6cc
6b-
6a-
6a-
6g
6f#
=25
2g
4r
8.e
16e
=26
8.e
16d
8.e
16d
8.e
16d
8.e
16f
=27
4g
2a
8.d
16d
=28
8.d
16c
8.d
16c
8.d
16e
8.f
16f#
=29
4a
8g
8r
8.a
16b
6cc
6b
6a
=30
8.b
16a
8.g
16g
8.f
16g
6a
6g
6f
=31
4g
4e
8.a
16b
6cc
6b
6a
=32
8.g
16cc
6cc
6b
6a
6a
6g
6f
6f
6e
6d
=33
4c
4r
2r
==34
!Chorus
2.b
4cc
=35
2dd
4dd
4b
=36
2cc
8.cc
16b
8.cc
16dd
=37
4b
4b
2r
=38
2.b
4cc
=39
2dd
4dd
4b
=40
2cc
8.cc
16b
8.cc
16dd
=41
4b
4r
4r
8.e
16f
=42
4g
8.g
16a
4b-
8.b-
16b-
=43
4b-
4a
4r
8.f#
16g
=44
4a
8.a
16bn
4cc
8.cc
16cc
=45
2b
4r
8.b
16b
=46
8.b
16a
8.b
16a
8.a
16g
8.a
16g
=47
4.a
8g
4e
8.cc
16b
=48
8.b
16a
8.b
16a
8.a
16g
8.a
16g
=49
4e
8c
8d
8e
8f
8g
8a
=50
2b-
4dd
4cc#
=51
4dd
4dd
4r
8.cc
16cc
=52
4ee
8.cc
16cc
4dd
8.b
16b
=53
4cc
4r
4r
8.cc
16cc
=54
4cc
8.cc
16cc
4dd
8.b
16b
=55
4cc
4r
4r
8.cc
16cc
=56
4ee
8.cc
16cc
4dd
8.b
16b
=57
4cc
4r
2r
=58
1r
=59
1r
==|!
*-
